icon-themes/sifr_svg/cmd/sc_prevrecord.svg

<svg viewBox="0 0 16 16" xmlns="http://www.w3.org/2000/svg"><path d="m8 2c-.3 0-.55232.1-.75.28125l-5.25 4.81875v1.8c1.645942 1.455541 4.1 3.940824 5.25 4.81875.25.18125.45.28125.75.28125h.5859375.4140625v-1c0 .25689-.1-.52846-.3125-.71875l-4.6875-4.28125 4.6875-4.28125c.18267-.19029.3125-.46186.3125-.71875v-1h-.4140625zm1 5c-.552285 0-1 .4477153-1 1s.447715 1 1 1 1-.4477153 1-1-.447715-1-1-1zm4 0a1 1 0 0 0 -1 1 1 1 0 0 0 1 1 1 1 0 0 0 1-1 1 1 0 0 0 -1-1z" fill="#555753"/></svg>

<svg xmlns="http://www.w3.org/2000/svg" viewBox="0 0 16 16">
  <path
     style="fill:#555753"
     d="M 8,2 C 7.7,2 7.44768,2.1 7.25,2.28125 L 2,7.1 V 8.9 C 3.645942,10.355541 6.1,12.840824 7.25,13.71875 7.5,13.9 7.7,14 8,14 H 8.5859375 9 V 13 C 9,13.25689 8.9,12.47154 8.6875,12.28125 L 4,8 8.6875,3.71875 C 8.87017,3.52846 9,3.25689 9,3 V 2 H 8.5859375 Z M 9,7 C 8.447715,7 8,7.4477153 8,8 8,8.5522847 8.447715,9 9,9 9.552285,9 10,8.5522847 10,8 10,7.4477153 9.552285,7 9,7 Z m 4,0 a 1,1 0 0 0 -1,1 1,1 0 0 0 1,1 1,1 0 0 0 1,-1 1,1 0 0 0 -1,-1 z"
     />
</svg>
